uploads/2019/01/11/values_03.svg

<svg height="60" viewBox="0 0 60 60" width="60" xmlns="http://www.w3.org/2000/svg"><g fill="#04de47" fill-rule="evenodd" transform="translate(6 6)"><path d="m36.4866 44.5938c-1.7710379-2.11927-2.6611119-4.8374571-2.4866-7.5938v-17c.0051432-3.2884322-1.4634987-6.4061419-4.0022696-8.4962268-2.5387709-2.09008491-5.8805063-2.93259749-9.1067304-2.2959732 4.1425479.894072 7.1020318 4.5542737 7.109 8.7922v17c-.0743937 2.1657685.3590267 4.318898 1.2656 6.2872-.7410015-.1859691-1.5016337-.282391-2.2656-.2872-1.7803475.0962593-3.5300957.5034735-5.17 1.2032-.9049544.3867295-1.8562085.6545596-2.83.7968-.9358362-.132867-1.8491835-.3927275-2.7148-.7724-1.5407022-.6396473-3.1696028-1.0416294-4.831-1.1922-.420992 1.2944142-1.0751523 2.5009269-1.9302 3.56-.53254975.6336411-.94784927 1.3571644-1.2264 2.1366.86862332-.2130821 1.724187-.4762554 2.5624-.7882 1.3155107-.550169 2.7160177-.8694441 4.14-.9438 1.5842454.0956205 3.1392671.4695325 4.5938 1.1046 1.0801842.4787759 2.2302082.7810868 3.4062.8954 1.2114159-.1219318 2.3965424-.4312859 3.513-.917 1.4226049-.615309 2.940347-.9816372 4.487-1.083 1.3541265.0734348 2.6851932.3816191 3.9338.9108.9100891.3455283 1.8427288.6284542 2.7914.8468-.2667864-.7955967-.687663-1.5308564-1.2386-2.1638z" opacity=".15"/><path d="m23 17c-3.8659932 0-7 3.1340068-7 7s3.1340068 7 7 7 7-3.1340068 7-7c0-1.8565154-.7374979-3.6369928-2.0502525-4.9497475-1.3127547-1.3127546-3.0932321-2.0502525-4.9497475-2.0502525zm0 12c-2.7614237 0-5-2.2385763-5-5s2.2385763-5 5-5 5 2.2385763 5 5c-.0031962 2.7600988-2.2399012 4.9968038-5 5z" fill-rule="nonzero"/><circle cx="23" cy="24" r="1"/><circle cx="15" cy="32" r="1"/><circle cx="19" cy="34" r="1"/><path d="m29 37h-12c-.5522847 0-1 .4477153-1 1s.4477153 1 1 1h12c.5522847 0 1-.4477153 1-1s-.4477153-1-1-1z"/><path d="m43 39c-1.9136183.0288535-3.805975-.4041869-5.5166-1.2624 3.4848-.7408 4.5166-3.1662 4.5166-6.7376v-12c.0017637-1.6561231 1.3438769-2.9982363 3-3h2c.5522847 0 1-.4477153 1-1s-.4477153-1-1-1h-2c-2.7602357.0028662-4.9971338 2.2397643-5 5v12c.1845589 1.1956574-.1447249 2.4136309-.9066083 3.353414-.7618834.9397832-1.8854157 1.5138584-3.0933917 1.580586v-15.934c-.000616-5.1857066-3.0831031-9.8750297-7.8434-11.932l3.6756-5.5134c.3001878-.45931559.1741884-1.07473062-.2823581-1.37911327-.4565466-.30438264-1.07309-.18402589-1.3816419.26971327l-3.9772 5.9658c-2.0920425-.54799759-4.2899575-.54799759-6.382 0l-3.977-5.9656c-.1966464-.30088746-.5396496-.473087-.898421-.45103859-.3587714.0220484-.6781079.23495222-.8364314.55765447-.1583235.32270224-.1312731.70554966.0708524 1.00278412l3.6754 5.5132c-4.7602969 2.0569703-7.842784 6.7462934-7.8434 11.932v16.3948c-1.13272495.5073411-2.43998155.4410784-3.5156-.1782-1.3315109-.5667425-2.27252252-1.7850881-2.4844-3.2166.15075-1.6734041.80133017-3.262782 1.8672-4.5616 1.25100937-1.551657 1.99548323-3.4499815 2.1328-5.4384 0-4.5176-5.2578-7-7-7-.55228475 0-1 .4477153-1 1s.44771525 1 1 1c.7852 0 5 1.8018 5 5-.15962964 1.5924755-.78689398 3.102113-1.8028 4.3388-1.29153881 1.6194443-2.05808216 3.5944831-2.1972 5.6612.20313515 2.1877327 1.56790919 4.0968575 3.5722 4.997.92554342.4879718 1.95377577.7490742 3 .7618.22748326-.0025717.45458716-.0192705.68-.05-2.15801739 2.2199549-5.15874202 3.4167248-8.2522 3.2912-.55228475 0-1 .4477153-1 1s.44771525 1 1 1c2.88182067.0226459 5.70348047-.8243678 8.0964-2.4304-1.0588 2.1308-2.711 2.954-3.0388 6.24-.03562613.2807678.04761555.5636574.22963158.780383.18201604.2167255.44626782.3475945.72896842.361017.0288 0 .058-.0014.0876-.0042 3.3282-.3144 5.6376-1.9468 7.8962-1.9468 2.5 0 5.375 2 8 2s5.625-2 8-2c2.1562 0 4.4156 1.6486 7.9 1.9522.0273333.0024.0544.0036.0812.0036.2830643-.0128973.5479447-.1431904.7309316-.3595408.182987-.2163505.2675205-.499179.2332684-.7804592-.4142-4.3736-3.08-4.311-3.7766-8.557 2.0778183 1.1872058 4.4386058 1.7889454 6.8312 1.7412 1.5959773.1384884 2.8615116 1.4040227 3 3 0 .5522847.4477153 1 1 1s1-.4477153 1-1c-.1337452-2.7040884-2.2959116-4.8662548-5-5zm-5.275 7.7576c-.9486712-.2183458-1.8813109-.5012717-2.7914-.8468-1.2485442-.5291584-2.5795412-.8373422-3.9336-.9108-1.546653.1013628-3.0643951.467691-4.487 1.083-1.1164576.4857141-2.3015841.7950682-3.513.917-1.1759918-.1143132-2.3260158-.4166241-3.4062-.8954-1.4545329-.6350675-3.0095546-1.0089795-4.5938-1.1046-1.4239823.0743559-2.8244893.393631-4.14.9438-.8384873.311771-1.69431879.5747442-2.5632.7876.27855073-.7794356.69385025-1.5029589 1.2264-2.1366 1.7458853-2.1330202 2.6295301-4.8426074 2.4768-7.5948v-17c0-6.0751322 4.9248678-11 11-11s11 4.9248678 11 11v17c-.1745119 2.7563429.7155621 5.47453 2.4866 7.5938.5508656.6329606.9716735 1.3682191 1.2384 2.1638z" fill-rule="nonzero"/></g></svg>

<?xml version="1.0" encoding="UTF-8"?>
<svg width="60px" height="60px" viewBox="0 0 60 60" version="1.1" xmlns="http://www.w3.org/2000/svg" xmlns:xlink="http://www.w3.org/1999/xlink">
    <!-- Generator: Sketch 52.4 (67378) - http://www.bohemiancoding.com/sketch -->
    <title>assets/homepage/values_02</title>
    <desc>Created with Sketch.</desc>
    <g id="Page-1" stroke="none" stroke-width="1" fill="none" fill-rule="evenodd">
        <g id="Wunder-Careers-04-Cultures-Mobile" transform="translate(-158.000000, -1306.000000)" fill="#04DE47">
            <g id="Wunder-Values" transform="translate(20.000000, 668.000000)">
                <g id="Group-10-Copy-6" transform="translate(0.000000, 582.000000)">
                    <g id="People" transform="translate(79.000000, 56.000000)">
                        <g id="Group-9" transform="translate(59.000000, 0.000000)">
                            <g id="alien" transform="translate(6.000000, 6.000000)">
                                <path d="M36.4866,44.5938 C34.7155621,42.47453 33.8254881,39.7563429 34,37 L34,20 C34.0051432,16.7115678 32.5365013,13.5938581 29.9977304,11.5037732 C27.4589595,9.41368829 24.1172241,8.57117571 20.891,9.2078 C25.0335479,10.101872 27.9930318,13.7620737 28,18 L28,35 C27.9256063,37.1657685 28.3590267,39.318898 29.2656,41.2872 C28.5245985,41.1012309 27.7639663,41.004809 27,41 C25.2196525,41.0962593 23.4699043,41.5034735 21.83,42.2032 C20.9250456,42.5899295 19.9737915,42.8577596 19,43 C18.0641638,42.867133 17.1508165,42.6072725 16.2852,42.2276 C14.7444978,41.5879527 13.1155972,41.1859706 11.4542,41.0354 C11.033208,42.3298142 10.3790477,43.5363269 9.524,44.5954 C8.99145025,45.2290411 8.57615073,45.9525644 8.2976,46.732 C9.16622332,46.5189179 10.021787,46.2557446 10.86,45.9438 C12.1755107,45.393631 13.5760177,45.0743559 15,45 C16.5842454,45.0956205 18.1392671,45.4695325 19.5938,46.1046 C20.6739842,46.5833759 21.8240082,46.8856868 23,47 C24.2114159,46.8780682 25.3965424,46.5687141 26.513,46.083 C27.9356049,45.467691 29.453347,45.1013628 31,45 C32.3541265,45.0734348 33.6851932,45.3816191 34.9338,45.9108 C35.8438891,46.2563283 36.7765288,46.5392542 37.7252,46.7576 C37.4584136,45.9620033 37.037537,45.2267436 36.4866,44.5938 Z" id="Path" opacity="0.149999991"></path>
                                <path d="M23,17 C19.1340068,17 16,20.1340068 16,24 C16,27.8659932 19.1340068,31 23,31 C26.8659932,31 30,27.8659932 30,24 C30,22.1434846 29.2625021,20.3630072 27.9497475,19.0502525 C26.6369928,17.7374979 24.8565154,17 23,17 Z M23,29 C20.2385763,29 18,26.7614237 18,24 C18,21.2385763 20.2385763,19 23,19 C25.7614237,19 28,21.2385763 28,24 C27.9968038,26.7600988 25.7600988,28.9968038 23,29 Z" id="Shape" fill-rule="nonzero"></path>
                                <circle id="Oval" cx="23" cy="24" r="1"></circle>
                                <circle id="Oval" cx="15" cy="32" r="1"></circle>
                                <circle id="Oval" cx="19" cy="34" r="1"></circle>
                                <path d="M29,37 L17,37 C16.4477153,37 16,37.4477153 16,38 C16,38.5522847 16.4477153,39 17,39 L29,39 C29.5522847,39 30,38.5522847 30,38 C30,37.4477153 29.5522847,37 29,37 Z" id="Path"></path>
                                <path d="M43,39 C41.0863817,39.0288535 39.194025,38.5958131 37.4834,37.7376 C40.9682,36.9968 42,34.5714 42,31 L42,19 C42.0017637,17.3438769 43.3438769,16.0017637 45,16 L47,16 C47.5522847,16 48,15.5522847 48,15 C48,14.4477153 47.5522847,14 47,14 L45,14 C42.2397643,14.0028662 40.0028662,16.2397643 40,19 L40,31 C40.1845589,32.1956574 39.8552751,33.4136309 39.0933917,34.353414 C38.3315083,35.2931972 37.207976,35.8672724 36,35.934 L36,20 C35.999384,14.8142934 32.9168969,10.1249703 28.1566,8.068 L31.8322,2.5546 C32.1323878,2.09528441 32.0063884,1.47986938 31.5498419,1.17548673 C31.0932953,0.871104086 30.4767519,0.991460843 30.1682,1.4452 L26.191,7.411 C24.0989575,6.86300241 21.9010425,6.86300241 19.809,7.411 L15.832,1.4454 C15.6353536,1.14451254 15.2923504,0.972313 14.933579,0.994361405 C14.5748076,1.01640981 14.2554711,1.22931363 14.0971476,1.55201588 C13.9388241,1.87471812 13.9658745,2.25756554 14.168,2.5548 L17.8434,8.068 C13.0831031,10.1249703 10.000616,14.8142934 10,20 L10,36.3948 C8.86727505,36.9021411 7.56001845,36.8358784 6.4844,36.2166 C5.1528891,35.6498575 4.21187748,34.4315119 4,33 C4.15075,31.3265959 4.80133017,29.737218 5.8672,28.4384 C7.11820937,26.886743 7.86268323,24.9884185 8,23 C8,18.4824 2.7422,16 1,16 C0.44771525,16 0,16.4477153 0,17 C0,17.5522847 0.44771525,18 1,18 C1.7852,18 6,19.8018 6,23 C5.84037036,24.5924755 5.21310602,26.102113 4.1972,27.3388 C2.90566119,28.9582443 2.13911784,30.9332831 2,33 C2.20313515,35.1877327 3.56790919,37.0968575 5.5722,37.997 C6.49774342,38.4849718 7.52597577,38.7460742 8.5722,38.7588 C8.79968326,38.7562283 9.02678716,38.7395295 9.2522,38.7088 C7.09418261,40.9287549 4.09345798,42.1255248 1,42 C0.44771525,42 8.8817842e-16,42.4477153 8.8817842e-16,43 C8.8817842e-16,43.5522847 0.44771525,44 1,44 C3.88182067,44.0226459 6.70348047,43.1756322 9.0964,41.5696 C8.0376,43.7004 6.3854,44.5236 6.0576,47.8096 C6.02197387,48.0903678 6.10521555,48.3732574 6.28723158,48.589983 C6.46924762,48.8067085 6.7334994,48.9375775 7.0162,48.951 C7.045,48.951 7.0742,48.9496 7.1038,48.9468 C10.432,48.6324 12.7414,47 15,47 C17.5,47 20.375,49 23,49 C25.625,49 28.625,47 31,47 C33.1562,47 35.4156,48.6486 38.9,48.9522 C38.9273333,48.9546 38.9544,48.9558 38.9812,48.9558 C39.2642643,48.9429027 39.5291447,48.8126096 39.7121316,48.5962592 C39.8951186,48.3799087 39.9796521,48.0970802 39.9454,47.8158 C39.5312,43.4422 36.8654,43.5048 36.1688,39.2588 C38.2466183,40.4460058 40.6074058,41.0477454 43,41 C44.5959773,41.1384884 45.8615116,42.4040227 46,44 C46,44.5522847 46.4477153,45 47,45 C47.5522847,45 48,44.5522847 48,44 C47.8662548,41.2959116 45.7040884,39.1337452 43,39 Z M37.725,46.7576 C36.7763288,46.5392542 35.8436891,46.2563283 34.9336,45.9108 C33.6850558,45.3816416 32.3540588,45.0734578 31,45 C29.453347,45.1013628 27.9356049,45.467691 26.513,46.083 C25.3965424,46.5687141 24.2114159,46.8780682 23,47 C21.8240082,46.8856868 20.6739842,46.5833759 19.5938,46.1046 C18.1392671,45.4695325 16.5842454,45.0956205 15,45 C13.5760177,45.0743559 12.1755107,45.393631 10.86,45.9438 C10.0215127,46.255571 9.16568121,46.5185442 8.2968,46.7314 C8.57535073,45.9519644 8.99065025,45.2284411 9.5232,44.5948 C11.2690853,42.4617798 12.1527301,39.7521926 12,37 L12,20 C12,13.9248678 16.9248678,9 23,9 C29.0751322,9 34,13.9248678 34,20 L34,37 C33.8254881,39.7563429 34.7155621,42.47453 36.4866,44.5938 C37.0374656,45.2267606 37.4582735,45.9620191 37.725,46.7576 Z" id="Shape" fill-rule="nonzero"></path>
                            </g>
                        </g>
                    </g>
                </g>
            </g>
        </g>
    </g>
</svg>
